src/assets/img/svg/burger-menu-icons/sign-in.svg

<svg width="20" height="18" fill="none" xmlns="http://www.w3.org/2000/svg"><path d="M9 4L7.6 5.4 10.2 8H0v2h10.2l-2.6 2.6L9 14l5-5-5-5zm9 12h-8v2h8c1.1 0 2-.9 2-2V2c0-1.1-.9-2-2-2h-8v2h8v14z" fill="#D0CFCF"/></svg>

<svg width="20" height="18" viewBox="0 0 20 18" fill="none" xmlns="http://www.w3.org/2000/svg">
    <path
            d="M9 4L7.6 5.4L10.2 8H0V10H10.2L7.6 12.6L9 14L14 9L9 4ZM18 16H10V18H18C19.1 18 20 17.1 20 16V2C20 0.9 19.1 0 18 0H10V2H18V16Z"
            fill="#D0CFCF"/>
</svg>
